libs/ui/packages/crypto-icons/src/svg/GAS.svg

<svg width="24" height="24" viewBox="0 0 24 24" fill="none">
<path d="M18.375 16.935L13.1325 14.4915V9.0765L18.375 7.21725V16.935ZM10.7422 19.5L5.625 17.1157V7.4685L10.7422 9.8535V19.5ZM18.2498 6.86775L18.165 6.89775L13.1325 8.6835L13.0065 8.7285L10.8742 9.4845L5.82675 7.1325L13.0065 4.5855L13.0695 4.563L13.2023 4.51575L13.2488 4.5L18.2963 6.852L18.249 6.86775H18.2498Z" fill="#58BF00"/>
</svg>

<svg width="24" height="24" viewBox="0 0 24 24" fill="none"><path fill="#58bf00" d="m18.375 16.935-5.242-2.443V9.076l5.242-1.859zM10.742 19.5l-5.117-2.384V7.469l5.117 2.385zM18.25 6.868l-.085.03-5.032 1.786-.126.045-2.133.756-5.047-2.352 7.18-2.548.063-.022.132-.047.047-.016 5.047 2.352-.047.016"/></svg>
